; generated by PrusaSlicer 2.4.0+arm64 on 2022-02-14 at 11:47:59 UTC

; 

; external perimeters extrusion width = 0.45mm
; perimeters extrusion width = 0.45mm
; infill extrusion width = 0.45mm
; solid infill extrusion width = 0.45mm
; top infill extrusion width = 0.45mm
; support material extrusion width = 0.38mm
; first layer extrusion width = 0.42mm

M201 X500 Y500 Z100 E5000 ; sets maximum accelerations, mm/sec^2
M203 X500 Y500 Z10 E60 ; sets maximum feedrates, mm/sec
M204 P500 R1000 T500 ; sets acceleration (P, T) and retract acceleration (R), mm/sec^2
M205 X8.00 Y8.00 Z0.40 E5.00 ; sets the jerk limits, mm/sec
M205 S0 T0 ; sets the minimum extruding and travel feed rate, mm/sec
M107
;TYPE:Custom
G90 ; use absolute coordinates
M83 ; extruder relative mode
M140 S60 ; set final bed temp
M104 S150 ; set temporary nozzle temp to prevent oozing during homing
G4 S10 ; allow partial nozzle warmup
G28 ; home all axis
G1 Z50 F240
G1 X2 Y10 F3000
M104 S210 ; set final nozzle temp
M190 S60 ; wait for bed temp to stabilize
M109 S210 ; wait for nozzle temp to stabilize
G1 Z0.28 F240
G92 E0
G1 Y140 E10 F1500 ; prime the nozzle
G1 X2.3 F5000
G92 E0
G1 Y10 E10 F1200 ; prime the nozzle
G92 E0
G21 ; set units to millimeters
G90 ; use absolute coordinates
M83 ; use relative distances for extrusion
; Filament gcode
M107
;LAYER_CHANGE
;Z:0.2
;HEIGHT:0.2
;BEFORE_LAYER_CHANGE
G92 E0
;0.2


G1 E-5 F3600
G1 Z.2 F9000
;AFTER_LAYER_CHANGE
;0.2
G1 X69.659 Y61.174
G1 E5 F2400
M204 S500
;TYPE:Skirt/Brim
;WIDTH:0.42
G1 F1200
G1 X70.847 Y60.055 E.05115
G1 X72.5 Y59.623 E.05359
G1 X147.5 Y59.623 E2.35157
G1 X149.083 Y60.017 E.05115
G1 X150.297 Y61.107 E.05115
G1 X150.865 Y62.719 E.05359
G1 X155.904 Y123.064 E1.89867
G1 X155.916 Y161.853 E1.21618
G1 X155.522 Y163.436 E.05115
G1 X154.431 Y164.649 E.05115
G1 X152.539 Y165.23 E.06207
G1 X67.461 Y165.23 E2.66753
G1 X65.878 Y164.836 E.05115
G1 X64.665 Y163.745 E.05115
G1 X64.084 Y161.853 E.06207
G1 X64.084 Y123.345 E1.20737
G1 X69.135 Y62.719 E1.90748
G1 X69.64 Y61.231 E.04927
G1 E-3.5 F3600
;WIPE_START
G1 F7200
G1 X70.847 Y60.055 E-.80023
G1 X72.119 Y59.723 E-.62477
;WIPE_END
G1 E-.075 F3600
G1 X72.02 Y128.199 F9000
G1 E5 F2400
;TYPE:Support material
G1 F1200
G1 X72.301 Y128.48 E.01247
G1 X147.699 Y128.48 E2.36404
G1 X147.98 Y128.199 E.01247
G1 X147.98 Y123.345 E.15218
G1 X152.539 Y123.345 E.14293
G1 X152.539 Y161.853 E1.20737
G1 X67.461 Y161.853 E2.66753
G1 X67.461 Y123.345 E1.20737
G1 X72.02 Y123.345 E.14293
G1 X72.02 Y128.142 E.1504
G1 X151.898 Y161.683 F9000
G1 F1200
G1 X151.898 Y123.685 E1.19141
G1 X151.479 Y123.685 E.01314
G1 X151.479 Y161.513 E1.18609
G1 X151.06 Y161.513 E.01314
G1 X151.06 Y123.685 E1.18609
G1 X150.641 Y123.685 E.01314
G1 X150.641 Y161.513 E1.18609
G1 X150.222 Y161.513 E.01314
G1 X150.222 Y123.685 E1.18609
G1 X149.803 Y123.685 E.01314
G1 X149.803 Y161.513 E1.18609
G1 X149.384 Y161.513 E.01314
G1 X149.384 Y123.685 E1.18609
G1 X148.965 Y123.685 E.01314
G1 X148.965 Y161.513 E1.18609
G1 X148.546 Y161.513 E.01314
G1 X148.546 Y123.685 E1.18609
G1 X148.319 Y123.685 E.0071
G1 X148.319 Y128.339 E.14595
G1 X148.127 Y128.532 E.00853
G1 X148.127 Y161.513 E1.03411
G1 X147.708 Y161.513 E.01314
G1 X147.708 Y128.819 E1.02509
G1 X147.289 Y128.819 E.01314
G1 X147.289 Y161.513 E1.02509
G1 X146.87 Y161.513 E.01314
G1 X146.87 Y128.819 E1.02509
G1 X146.451 Y128.819 E.01314
G1 X146.451 Y161.513 E1.02509
G1 X146.032 Y161.513 E.01314
G1 X146.032 Y128.819 E1.02509
G1 X145.613 Y128.819 E.01314
G1 X145.613 Y161.513 E1.02509
G1 X145.194 Y161.513 E.01314
G1 X145.194 Y128.819 E1.02509
G1 X144.775 Y128.819 E.01314
G1 X144.775 Y161.513 E1.02509
G1 X144.356 Y161.513 E.01314
G1 X144.356 Y128.819 E1.02509
G1 X143.937 Y128.819 E.01314
G1 X143.937 Y161.513 E1.02509
G1 X143.518 Y161.513 E.01314
G1 X143.518 Y128.819 E1.02509
G1 X143.099 Y128.819 E.01314
G1 X143.099 Y161.513 E1.02509
G1 X142.68 Y161.513 E.01314
G1 X142.68 Y128.819 E1.02509
G1 X142.261 Y128.819 E.01314
G1 X142.261 Y161.513 E1.02509
G1 X141.842 Y161.513 E.01314
G1 X141.842 Y128.819 E1.02509
G1 X141.423 Y128.819 E.01314
G1 X141.423 Y161.513 E1.02509
G1 X141.004 Y161.513 E.01314
G1 X141.004 Y128.819 E1.02509
G1 X140.585 Y128.819 E.01314
G1 X140.585 Y161.513 E1.02509
G1 X140.166 Y161.513 E.01314
G1 X140.166 Y128.819 E1.02509
G1 X139.747 Y128.819 E.01314
G1 X139.747 Y161.513 E1.02509
G1 X139.328 Y161.513 E.01314
G1 X139.328 Y128.819 E1.02509
G1 X138.909 Y128.819 E.01314
G1 X138.909 Y161.513 E1.02509
G1 X138.49 Y161.513 E.01314
G1 X138.49 Y128.819 E1.02509
G1 X138.071 Y128.819 E.01314
G1 X138.071 Y161.513 E1.02509
G1 X137.652 Y161.513 E.01314
G1 X137.652 Y128.819 E1.02509
G1 X137.234 Y128.819 E.01314
G1 X137.234 Y161.513 E1.02509
G1 X136.815 Y161.513 E.01314
G1 X136.815 Y128.819 E1.02509
G1 X136.396 Y128.819 E.01314
G1 X136.396 Y161.513 E1.02509
G1 X135.977 Y161.513 E.01314
G1 X135.977 Y128.819 E1.02509
G1 X135.558 Y128.819 E.01314
G1 X135.558 Y161.513 E1.02509
G1 X135.139 Y161.513 E.01314
G1 X135.139 Y128.819 E1.02509
G1 X134.72 Y128.819 E.01314
G1 X134.72 Y161.513 E1.02509
G1 X134.301 Y161.513 E.01314
G1 X134.301 Y128.819 E1.02509
G1 X133.882 Y128.819 E.01314
G1 X133.882 Y161.513 E1.02509
G1 X133.463 Y161.513 E.01314
G1 X133.463 Y128.819 E1.02509
G1 X133.044 Y128.819 E.01314
G1 X133.044 Y161.513 E1.02509
G1 X132.625 Y161.513 E.01314
G1 X132.625 Y128.819 E1.02509
G1 X132.206 Y128.819 E.01314
G1 X132.206 Y161.513 E1.02509
G1 X131.787 Y161.513 E.01314
G1 X131.787 Y128.819 E1.02509
G1 X131.368 Y128.819 E.01314
G1 X131.368 Y161.513 E1.02509
G1 X130.949 Y161.513 E.01314
G1 X130.949 Y128.819 E1.02509
G1 X130.53 Y128.819 E.01314
G1 X130.53 Y161.513 E1.02509
G1 X130.111 Y161.513 E.01314
G1 X130.111 Y128.819 E1.02509
G1 X129.692 Y128.819 E.01314
G1 X129.692 Y161.513 E1.02509
G1 X129.273 Y161.513 E.01314
G1 X129.273 Y128.819 E1.02509
G1 X128.854 Y128.819 E.01314
G1 X128.854 Y161.513 E1.02509
G1 X128.435 Y161.513 E.01314
G1 X128.435 Y128.819 E1.02509
G1 X128.016 Y128.819 E.01314
G1 X128.016 Y161.513 E1.02509
G1 X127.597 Y161.513 E.01314
G1 X127.597 Y128.819 E1.02509
G1 X127.178 Y128.819 E.01314
G1 X127.178 Y161.513 E1.02509
G1 X126.759 Y161.513 E.01314
G1 X126.759 Y128.819 E1.02509
G1 X126.34 Y128.819 E.01314
G1 X126.34 Y161.513 E1.02509
G1 X125.921 Y161.513 E.01314
G1 X125.921 Y128.819 E1.02509
G1 X125.502 Y128.819 E.01314
G1 X125.502 Y161.513 E1.02509
G1 X125.083 Y161.513 E.01314
G1 X125.083 Y128.819 E1.02509
G1 X124.664 Y128.819 E.01314
G1 X124.664 Y161.513 E1.02509
G1 X124.245 Y161.513 E.01314
G1 X124.245 Y128.819 E1.02509
G1 X123.826 Y128.819 E.01314
G1 X123.826 Y161.513 E1.02509
G1 X123.407 Y161.513 E.01314
G1 X123.407 Y128.819 E1.02509
G1 X122.988 Y128.819 E.01314
G1 X122.988 Y161.513 E1.02509
G1 X122.569 Y161.513 E.01314
G1 X122.569 Y128.819 E1.02509
G1 X122.15 Y128.819 E.01314
G1 X122.15 Y161.513 E1.02509
G1 X121.731 Y161.513 E.01314
G1 X121.731 Y128.819 E1.02509
G1 X121.312 Y128.819 E.01314
G1 X121.312 Y161.513 E1.02509
G1 X120.893 Y161.513 E.01314
G1 X120.893 Y128.819 E1.02509
G1 X120.474 Y128.819 E.01314
G1 X120.474 Y161.513 E1.02509
G1 X120.055 Y161.513 E.01314
G1 X120.055 Y128.819 E1.02509
G1 X119.636 Y128.819 E.01314
G1 X119.636 Y161.513 E1.02509
G1 X119.217 Y161.513 E.01314
G1 X119.217 Y128.819 E1.02509
G1 X118.799 Y128.819 E.01314
G1 X118.799 Y161.513 E1.02509
G1 X118.38 Y161.513 E.01314
G1 X118.38 Y128.819 E1.02509
G1 X117.961 Y128.819 E.01314
G1 X117.961 Y161.513 E1.02509
G1 X117.542 Y161.513 E.01314
G1 X117.542 Y128.819 E1.02509
G1 X117.123 Y128.819 E.01314
G1 X117.123 Y161.513 E1.02509
G1 X116.704 Y161.513 E.01314
G1 X116.704 Y128.819 E1.02509
G1 X116.285 Y128.819 E.01314
G1 X116.285 Y161.513 E1.02509
G1 X115.866 Y161.513 E.01314
G1 X115.866 Y128.819 E1.02509
G1 X115.447 Y128.819 E.01314
G1 X115.447 Y161.513 E1.02509
G1 X115.028 Y161.513 E.01314
G1 X115.028 Y128.819 E1.02509
G1 X114.609 Y128.819 E.01314
G1 X114.609 Y161.513 E1.02509
G1 X114.19 Y161.513 E.01314
G1 X114.19 Y128.819 E1.02509
G1 X113.771 Y128.819 E.01314
G1 X113.771 Y161.513 E1.02509
G1 X113.352 Y161.513 E.01314
G1 X113.352 Y128.819 E1.02509
G1 X112.933 Y128.819 E.01314
G1 X112.933 Y161.513 E1.02509
G1 X112.514 Y161.513 E.01314
G1 X112.514 Y128.819 E1.02509
G1 X112.095 Y128.819 E.01314
G1 X112.095 Y161.513 E1.02509
G1 X111.676 Y161.513 E.01314
G1 X111.676 Y128.819 E1.02509
G1 X111.257 Y128.819 E.01314
G1 X111.257 Y161.513 E1.02509
G1 X110.838 Y161.513 E.01314
G1 X110.838 Y128.819 E1.02509
G1 X110.419 Y128.819 E.01314
G1 X110.419 Y161.513 E1.02509
G1 X110 Y161.513 E.01314
G1 X110 Y128.819 E1.02509
G1 X109.581 Y128.819 E.01314
G1 X109.581 Y161.513 E1.02509
G1 X109.162 Y161.513 E.01314
G1 X109.162 Y128.819 E1.02509
G1 X108.743 Y128.819 E.01314
G1 X108.743 Y161.513 E1.02509
G1 X108.324 Y161.513 E.01314
G1 X108.324 Y128.819 E1.02509
G1 X107.905 Y128.819 E.01314
G1 X107.905 Y161.513 E1.02509
G1 X107.486 Y161.513 E.01314
G1 X107.486 Y128.819 E1.02509
G1 X107.067 Y128.819 E.01314
G1 X107.067 Y161.513 E1.02509
G1 X106.648 Y161.513 E.01314
G1 X106.648 Y128.819 E1.02509
G1 X106.229 Y128.819 E.01314
G1 X106.229 Y161.513 E1.02509
G1 X105.81 Y161.513 E.01314
G1 X105.81 Y128.819 E1.02509
G1 X105.391 Y128.819 E.01314
G1 X105.391 Y161.513 E1.02509
G1 X104.972 Y161.513 E.01314
G1 X104.972 Y128.819 E1.02509
G1 X104.553 Y128.819 E.01314
G1 X104.553 Y161.513 E1.02509
G1 X104.134 Y161.513 E.01314
G1 X104.134 Y128.819 E1.02509
G1 X103.715 Y128.819 E.01314
G1 X103.715 Y161.513 E1.02509
G1 X103.296 Y161.513 E.01314
G1 X103.296 Y128.819 E1.02509
G1 X102.877 Y128.819 E.01314
G1 X102.877 Y161.513 E1.02509
G1 X102.458 Y161.513 E.01314
G1 X102.458 Y128.819 E1.02509
G1 X102.039 Y128.819 E.01314
G1 X102.039 Y161.513 E1.02509
G1 X101.62 Y161.513 E.01314
G1 X101.62 Y128.819 E1.02509
G1 X101.201 Y128.819 E.01314
G1 X101.201 Y161.513 E1.02509
G1 X100.783 Y161.513 E.01314
G1 X100.783 Y128.819 E1.02509
G1 X100.364 Y128.819 E.01314
G1 X100.364 Y161.513 E1.02509
G1 X99.945 Y161.513 E.01314
G1 X99.945 Y128.819 E1.02509
G1 X99.526 Y128.819 E.01314
G1 X99.526 Y161.513 E1.02509
G1 X99.107 Y161.513 E.01314
G1 X99.107 Y128.819 E1.02509
G1 X98.688 Y128.819 E.01314
G1 X98.688 Y161.513 E1.02509
G1 X98.269 Y161.513 E.01314
G1 X98.269 Y128.819 E1.02509
G1 X97.85 Y128.819 E.01314
G1 X97.85 Y161.513 E1.02509
G1 X97.431 Y161.513 E.01314
G1 X97.431 Y128.819 E1.02509
G1 X97.012 Y128.819 E.01314
G1 X97.012 Y161.513 E1.02509
G1 X96.593 Y161.513 E.01314
G1 X96.593 Y128.819 E1.02509
G1 X96.174 Y128.819 E.01314
G1 X96.174 Y161.513 E1.02509
G1 X95.755 Y161.513 E.01314
G1 X95.755 Y128.819 E1.02509
G1 X95.336 Y128.819 E.01314
G1 X95.336 Y161.513 E1.02509
G1 X94.917 Y161.513 E.01314
G1 X94.917 Y128.819 E1.02509
G1 X94.498 Y128.819 E.01314
G1 X94.498 Y161.513 E1.02509
G1 X94.079 Y161.513 E.01314
G1 X94.079 Y128.819 E1.02509
G1 X93.66 Y128.819 E.01314
G1 X93.66 Y161.513 E1.02509
G1 X93.241 Y161.513 E.01314
G1 X93.241 Y128.819 E1.02509
G1 X92.822 Y128.819 E.01314
G1 X92.822 Y161.513 E1.02509
G1 X92.403 Y161.513 E.01314
G1 X92.403 Y128.819 E1.02509
G1 X91.984 Y128.819 E.01314
G1 X91.984 Y161.513 E1.02509
G1 X91.565 Y161.513 E.01314
G1 X91.565 Y128.819 E1.02509
G1 X91.146 Y128.819 E.01314
G1 X91.146 Y161.513 E1.02509
G1 X90.727 Y161.513 E.01314
G1 X90.727 Y128.819 E1.02509
G1 X90.308 Y128.819 E.01314
G1 X90.308 Y161.513 E1.02509
G1 X89.889 Y161.513 E.01314
G1 X89.889 Y128.819 E1.02509
G1 X89.47 Y128.819 E.01314
G1 X89.47 Y161.513 E1.02509
G1 X89.051 Y161.513 E.01314
G1 X89.051 Y128.819 E1.02509
G1 X88.632 Y128.819 E.01314
G1 X88.632 Y161.513 E1.02509
G1 X88.213 Y161.513 E.01314
G1 X88.213 Y128.819 E1.02509
G1 X87.794 Y128.819 E.01314
G1 X87.794 Y161.513 E1.02509
G1 X87.375 Y161.513 E.01314
G1 X87.375 Y128.819 E1.02509
G1 X86.956 Y128.819 E.01314
G1 X86.956 Y161.513 E1.02509
G1 X86.537 Y161.513 E.01314
G1 X86.537 Y128.819 E1.02509
G1 X86.118 Y128.819 E.01314
G1 X86.118 Y161.513 E1.02509
G1 X85.699 Y161.513 E.01314
G1 X85.699 Y128.819 E1.02509
G1 X85.28 Y128.819 E.01314
G1 X85.28 Y161.513 E1.02509
G1 X84.861 Y161.513 E.01314
G1 X84.861 Y128.819 E1.02509
G1 X84.442 Y128.819 E.01314
G1 X84.442 Y161.513 E1.02509
G1 X84.023 Y161.513 E.01314
G1 X84.023 Y128.819 E1.02509
G1 X83.604 Y128.819 E.01314
G1 X83.604 Y161.513 E1.02509
G1 X83.185 Y161.513 E.01314
G1 X83.185 Y128.819 E1.02509
G1 X82.766 Y128.819 E.01314
G1 X82.766 Y161.513 E1.02509
G1 X82.348 Y161.513 E.01314
G1 X82.348 Y128.819 E1.02509
G1 X81.929 Y128.819 E.01314
G1 X81.929 Y161.513 E1.02509
G1 X81.51 Y161.513 E.01314
G1 X81.51 Y128.819 E1.02509
G1 X81.091 Y128.819 E.01314
G1 X81.091 Y161.513 E1.02509
G1 X80.672 Y161.513 E.01314
G1 X80.672 Y128.819 E1.02509
G1 X80.253 Y128.819 E.01314
G1 X80.253 Y161.513 E1.02509
G1 X79.834 Y161.513 E.01314
G1 X79.834 Y128.819 E1.02509
G1 X79.415 Y128.819 E.01314
G1 X79.415 Y161.513 E1.02509
G1 X78.996 Y161.513 E.01314
G1 X78.996 Y128.819 E1.02509
G1 X78.577 Y128.819 E.01314
G1 X78.577 Y161.513 E1.02509
G1 X78.158 Y161.513 E.01314
G1 X78.158 Y128.819 E1.02509
G1 X77.739 Y128.819 E.01314
G1 X77.739 Y161.513 E1.02509
G1 X77.32 Y161.513 E.01314
G1 X77.32 Y128.819 E1.02509
G1 X76.901 Y128.819 E.01314
G1 X76.901 Y161.513 E1.02509
G1 X76.482 Y161.513 E.01314
G1 X76.482 Y128.819 E1.02509
G1 X76.063 Y128.819 E.01314
G1 X76.063 Y161.513 E1.02509
G1 X75.644 Y161.513 E.01314
G1 X75.644 Y128.819 E1.02509
G1 X75.225 Y128.819 E.01314
G1 X75.225 Y161.513 E1.02509
G1 X74.806 Y161.513 E.01314
G1 X74.806 Y128.819 E1.02509
G1 X74.387 Y128.819 E.01314
G1 X74.387 Y161.513 E1.02509
G1 X73.968 Y161.513 E.01314
G1 X73.968 Y128.819 E1.02509
G1 X73.549 Y128.819 E.01314
G1 X73.549 Y161.513 E1.02509
G1 X73.13 Y161.513 E.01314
G1 X73.13 Y128.819 E1.02509
G1 X72.711 Y128.819 E.01314
G1 X72.711 Y161.513 E1.02509
G1 X72.292 Y161.513 E.01314
G1 X72.292 Y128.819 E1.02509
G1 X72.161 Y128.819 E.00412
G1 X71.873 Y128.532 E.01275
G1 X71.873 Y161.513 E1.03411
G1 X71.454 Y161.513 E.01314
G1 X71.454 Y123.685 E1.18609
G1 X71.035 Y123.685 E.01314
G1 X71.035 Y161.513 E1.18609
G1 X70.616 Y161.513 E.01314
G1 X70.616 Y123.685 E1.18609
G1 X70.197 Y123.685 E.01314
G1 X70.197 Y161.513 E1.18609
G1 X69.778 Y161.513 E.01314
G1 X69.778 Y123.685 E1.18609
G1 X69.359 Y123.685 E.01314
G1 X69.359 Y161.513 E1.18609
G1 X68.94 Y161.513 E.01314
G1 X68.94 Y123.685 E1.18609
G1 X68.521 Y123.685 E.01314
G1 X68.521 Y161.513 E1.18609
G1 X68.102 Y161.513 E.01314
G1 X68.102 Y123.515 E1.19141
G1 E-3.5 F3600
;WIPE_START
G1 F7200
G1 X68.102 Y126.515 E-1.425
;WIPE_END
G1 E-.075 F3600
G1 X73.187 Y126.913 F9000
G1 E5 F2400
;TYPE:Perimeter
G1 F1200
G1 X73.187 Y63.687 E1.9824
G1 X146.813 Y63.687 E2.30849
G1 X146.813 Y127.313 E1.99494
G1 X73.187 Y127.313 E2.30849
G1 X73.187 Y126.973 E.01066
G1 X72.81 Y127.69 F9000
;TYPE:External perimeter
G1 F1200
G1 X72.81 Y63.31 E2.01859
G1 X147.19 Y63.31 E2.33213
G1 X147.19 Y127.69 E2.01859
G1 X72.87 Y127.69 E2.33025
G1 X72.923 Y127.306 F9000
G1 E-3.5 F3600
;WIPE_START
G1 F7200
G1 X72.867 Y124.69 E-1.425
;WIPE_END
G1 E-.075 F3600
G1 X145.935 Y63.8 F9000
G1 E5 F2400
;TYPE:Solid infill
;WIDTH:0.420986
G1 F1200
G1 X146.53 Y64.395 E.02644
G1 X146.53 Y64.93 E.01681
G1 X145.57 Y63.97 E.04266
G1 X145.036 Y63.97 E.01681
G1 X146.53 Y65.464 E.06643
G1 X146.53 Y65.999 E.01681
G1 X144.501 Y63.97 E.0902
G1 X143.966 Y63.97 E.01681
G1 X146.53 Y66.534 E.11397
G1 X146.53 Y67.068 E.01681
G1 X143.432 Y63.97 E.13774
G1 X142.897 Y63.97 E.01681
G1 X146.53 Y67.603 E.16151
G1 X146.53 Y68.138 E.01681
G1 X142.362 Y63.97 E.18528
G1 X141.828 Y63.97 E.01681
G1 X146.53 Y68.672 E.20905
G1 X146.53 Y69.207 E.01681
G1 X141.293 Y63.97 E.23282
G1 X140.758 Y63.97 E.01681
G1 X146.53 Y69.742 E.25659
G1 X146.53 Y70.276 E.01681
G1 X140.224 Y63.97 E.28036
G1 X139.689 Y63.97 E.01681
G1 X146.53 Y70.811 E.30413
G1 X146.53 Y71.346 E.01681
G1 X139.154 Y63.97 E.3279
G1 X138.62 Y63.97 E.01681
G1 X146.53 Y71.88 E.35167
G1 X146.53 Y72.415 E.01681
G1 X138.085 Y63.97 E.37544
G1 X137.55 Y63.97 E.01681
G1 X146.53 Y72.95 E.39921
G1 X146.53 Y73.484 E.01681
G1 X137.016 Y63.97 E.42298
G1 X136.481 Y63.97 E.01681
G1 X146.53 Y74.019 E.44675
G1 X146.53 Y74.554 E.01681
G1 X135.946 Y63.97 E.47052
G1 X135.412 Y63.97 E.01681
